public/icons/technologies/json-server.svg

<?xml version="1.0" ?>

<!-- Uploaded to: SVG Repo, www.svgrepo.com, Generator: SVG Repo Mixer Tools -->
<svg width="800px" height="800px" viewBox="0 0 20 20" version="1.1" xmlns="http://www.w3.org/2000/svg">

<g id="layer1">

<path d="M 3 0 L 3 12 L 4 12 L 4 1 L 12 1 L 12 4 L 12 5 L 16 5 L 16 12 L 17 12 L 17 5 L 17 4 L 13 0 L 12 0 L 3 0 z M 13 1.3535156 L 15.646484 4 L 13 4 L 13 1.3535156 z M 4 13 L 4 16 L 3.9921875 16.130859 L 3.9667969 16.257812 L 3.9238281 16.382812 L 3.8652344 16.5 L 3.7929688 16.607422 L 3.7070312 16.707031 L 3.609375 16.792969 L 3.5 16.865234 L 3.3828125 16.923828 L 3.2597656 16.964844 L 3.1308594 16.992188 L 3 17 L 2.8691406 16.992188 L 2.7402344 16.964844 L 2.6171875 16.923828 L 2.5 16.865234 L 2.390625 16.792969 L 2.2929688 16.707031 L 2.2070312 16.607422 L 2.1347656 16.5 L 2.0761719 16.382812 L 2.0332031 16.257812 L 2.0078125 16.130859 L 2 16 L 1 16 L 1.0078125 16.183594 L 1.0351562 16.367188 L 1.0761719 16.546875 L 1.1347656 16.722656 L 1.2089844 16.890625 L 1.3007812 17.052734 L 1.4042969 17.205078 L 1.5214844 17.347656 L 1.6523438 17.478516 L 1.7949219 17.595703 L 1.9472656 17.699219 L 2.1074219 17.791016 L 2.2773438 17.865234 L 2.453125 17.923828 L 2.6328125 17.964844 L 2.8164062 17.992188 L 3 18 L 3.1835938 17.992188 L 3.3671875 17.964844 L 3.546875 17.923828 L 3.7226562 17.865234 L 3.8925781 17.791016 L 4.0527344 17.699219 L 4.2050781 17.595703 L 4.3476562 17.478516 L 4.4785156 17.347656 L 4.5957031 17.205078 L 4.6992188 17.052734 L 4.7910156 16.890625 L 4.8652344 16.722656 L 4.9238281 16.546875 L 4.9648438 16.367188 L 4.9921875 16.183594 L 5 16 L 5 13 L 4 13 z M 7.5 13 A 1.5 1.4999999 0 0 0 6 14.5 A 1.5 1.4999999 0 0 0 7.5 16 L 8.5 16 A 0.5 0.5 0 0 1 9 16.5 A 0.5 0.5 0 0 1 8.5 17 L 6 17 L 6 18 L 8.5 18 A 1.5 1.4999999 0 0 0 10 16.5 A 1.5 1.4999999 0 0 0 8.5 15 L 7.5 15 A 0.5 0.5 0 0 1 7 14.5 A 0.5 0.5 0 0 1 7.5 14 L 10 14 L 10 13 L 7.5 13 z M 13 13 L 12.816406 13.007812 L 12.632812 13.033203 L 12.453125 13.076172 L 12.277344 13.134766 L 12.107422 13.208984 L 11.947266 13.298828 L 11.794922 13.404297 L 11.652344 13.521484 L 11.521484 13.652344 L 11.404297 13.794922 L 11.300781 13.947266 L 11.208984 14.107422 L 11.134766 14.277344 L 11.076172 14.451172 L 11.035156 14.632812 L 11.007812 14.816406 L 11 15 L 11 16 L 11.007812 16.183594 L 11.035156 16.367188 L 11.076172 16.546875 L 11.134766 16.722656 L 11.208984 16.890625 L 11.300781 17.052734 L 11.404297 17.205078 L 11.521484 17.347656 L 11.652344 17.478516 L 11.794922 17.595703 L 11.947266 17.699219 L 12.107422 17.791016 L 12.277344 17.865234 L 12.453125 17.923828 L 12.632812 17.964844 L 12.816406 17.992188 L 13 18 L 13.183594 17.992188 L 13.367188 17.964844 L 13.546875 17.923828 L 13.722656 17.865234 L 13.892578 17.791016 L 14.052734 17.699219 L 14.205078 17.595703 L 14.347656 17.478516 L 14.478516 17.347656 L 14.595703 17.205078 L 14.699219 17.052734 L 14.791016 16.890625 L 14.865234 16.722656 L 14.923828 16.546875 L 14.964844 16.367188 L 14.992188 16.183594 L 15 16 L 15 15 L 14.992188 14.816406 L 14.964844 14.632812 L 14.923828 14.451172 L 14.865234 14.277344 L 14.791016 14.107422 L 14.699219 13.947266 L 14.595703 13.794922 L 14.478516 13.652344 L 14.347656 13.521484 L 14.205078 13.404297 L 14.052734 13.298828 L 13.892578 13.208984 L 13.722656 13.134766 L 13.546875 13.076172 L 13.367188 13.033203 L 13.183594 13.007812 L 13 13 z M 16.513672 13 A 0.50005 0.50005 0 0 0 16 13.5 L 16 18 L 17 18 L 17 15.001953 L 19.099609 17.800781 A 0.50005 0.50005 0 0 0 20 17.5 L 20 13 L 19 13 L 19 15.998047 L 16.900391 13.199219 A 0.50005 0.50005 0 0 0 16.513672 13 z M 13 14 L 13.130859 14.007812 L 13.259766 14.033203 L 13.382812 14.076172 L 13.5 14.134766 L 13.609375 14.207031 L 13.707031 14.292969 L 13.792969 14.390625 L 13.865234 14.5 L 13.923828 14.617188 L 13.966797 14.740234 L 13.992188 14.869141 L 14 15 L 14 16 L 13.992188 16.130859 L 13.966797 16.257812 L 13.923828 16.382812 L 13.865234 16.5 L 13.792969 16.607422 L 13.707031 16.707031 L 13.609375 16.792969 L 13.5 16.865234 L 13.382812 16.923828 L 13.259766 16.964844 L 13.130859 16.992188 L 13 17 L 12.869141 16.992188 L 12.740234 16.964844 L 12.617188 16.923828 L 12.5 16.865234 L 12.390625 16.792969 L 12.292969 16.707031 L 12.207031 16.607422 L 12.134766 16.5 L 12.076172 16.382812 L 12.033203 16.257812 L 12.007812 16.130859 L 12 16 L 12 15 L 12.007812 14.869141 L 12.033203 14.740234 L 12.076172 14.617188 L 12.134766 14.5 L 12.207031 14.390625 L 12.292969 14.292969 L 12.390625 14.207031 L 12.5 14.134766 L 12.617188 14.076172 L 12.740234 14.033203 L 12.869141 14.007812 L 13 14 z M 3 19 L 3 20 L 17 20 L 17 19 L 16 19 L 4 19 L 3 19 z " style="fill:#ff8800; fill-opacity:1; stroke:none; stroke-width:0px;"/>

</g>

</svg>

<svg width="800" height="800" viewBox="0 0 20 20" xmlns="http://www.w3.org/2000/svg"><path d="M3 0v12h1V1h8v4h4v7h1V4l-4-4H3zm10 1.354L15.646 4H13V1.354zM4 13v3l-.008.13-.025.128-.043.125-.059.117-.072.107-.086.1-.098.086-.109.072-.117.059-.123.04-.13.028L3 17l-.13-.008-.13-.027-.123-.041-.117-.059-.11-.072-.097-.086-.086-.1-.072-.107-.059-.117-.043-.125-.025-.127L2 16H1l.008.184.027.183.041.18.059.176.074.168.092.162.103.152.117.143.131.13.143.118.152.103.16.092.17.074.176.059.18.04.183.028L3 18l.184-.008.183-.027.18-.041.176-.059.17-.074.16-.092.152-.103.143-.117.13-.131.118-.143.103-.152.092-.162.074-.168.059-.176.04-.18.028-.183L5 16v-3H4zm3.5 0A1.5 1.5 0 0 0 6 14.5 1.5 1.5 0 0 0 7.5 16h1a.5.5 0 0 1 .5.5.5.5 0 0 1-.5.5H6v1h2.5a1.5 1.5 0 0 0 1.5-1.5A1.5 1.5 0 0 0 8.5 15h-1a.5.5 0 0 1-.5-.5.5.5 0 0 1 .5-.5H10v-1H7.5zm5.5 0-.184.008-.183.025-.18.043-.176.059-.17.074-.16.09-.152.105-.143.117-.13.131-.118.143-.103.152-.092.16-.074.17-.059.174-.04.182-.028.183L11 15v1l.008.184.027.183.041.18.059.176.074.168.092.162.103.152.117.143.131.13.143.118.152.103.16.092.17.074.176.059.18.04.183.028L13 18l.184-.008.183-.027.18-.041.176-.059.17-.074.16-.092.152-.103.143-.117.13-.131.118-.143.103-.152.092-.162.074-.168.059-.176.04-.18.028-.183L15 16v-1l-.008-.184-.027-.183-.041-.182-.059-.174-.074-.17-.092-.16-.103-.152-.117-.143-.131-.13-.143-.118-.152-.105-.16-.09-.17-.074-.176-.059-.18-.043-.183-.025L13 13zm3.514 0a.5.5 0 0 0-.514.5V18h1v-2.998l2.1 2.799a.5.5 0 0 0 .9-.301V13h-1v2.998l-2.1-2.799a.5.5 0 0 0-.386-.199zM13 14l.13.008.13.025.123.043.117.059.11.072.097.086.086.098.072.109.059.117.043.123.025.13L14 15v1l-.008.13-.025.128-.043.125-.059.117-.072.107-.086.1-.098.086-.109.072-.117.059-.123.04-.13.028L13 17l-.13-.008-.13-.027-.123-.041-.117-.059-.11-.072-.097-.086-.086-.1-.072-.107-.059-.117-.043-.125-.025-.127L12 16v-1l.008-.13.025-.13.043-.123.059-.117.072-.11.086-.097.098-.086.109-.072.117-.059.123-.043.13-.025L13 14zM3 19v1h14v-1H3z" style="fill:#f80;fill-opacity:1;stroke:none;stroke-width:0"/></svg>
